X:1
T:Come, Children, Raise Your Voices
T:Come, Children, Raise Your Voices
T:Maude Gilchrist Sewall (1872-?), circa 1910
T:Public Domain Courtesy of the Cyber Hymnal™
C:Maude Gilchrist Sewall (1872-?), circa 1910
Z:Public Domain
Z:Courtesy of the Cyber Hymnal™
%%score ( 1 2 ) ( 3 4 )
L:1/8
Q:1/4=108
M:4/4
K:G
V:1 treble 
V:2 treble 
V:3 bass 
V:4 bass 
V:1
 D2 | G3 A B2 G2 | [Gc]4 [GB]3 x2 | [GB] | [Gd]2 [Fd]2 [EG]3 | [EG] | [EB]2 [^DB]2 E3 | [DE] | %8
 [CA]3 [EB] [Ec]2 [EA]2 | d4 G4 |] %10
V:2
 D2 | G3 A B2 G2 | x9 | x | x7 | x | x4 E3 | x | x8 | (G2 F2) G4 |] %10
V:3
 D,2 | G,3 A, B,2 G,2 | E4 E,2 [G,D]3 | G, | [D,A,]2 [D,D]2 [E,B,]3 | E, | %6
 [B,,F,]2 [B,,B,]2 [C,G,]3 | [B,,^G,] | [A,,A,]3 [E,^G,] A,2 [C,C]2 | (B,2 A,2) [G,B,]4 |] %10
V:4
 D,2 | G,3 A, x G,2 x | C,2 x7 | G, | x7 | E, | x7 | x | x4 A,2 x2 | D,4 x4 |] %10

